frontend/public/drawerReportAnalysisOrange.svg

<svg width="36" height="36" viewBox="0 0 36 36" fill="none" xmlns="http://www.w3.org/2000/svg">
<path d="M33.75 29.25V31.5H3.375L2.25 30.375V0H4.5V29.25H33.75Z" fill="#FB4A04"/>
<path d="M29.2496 7.21574L17.6711 18.7965H16.0781L12.3746 15.0907L4.17112 23.2965L2.57812 21.7035L11.5781 12.7035H13.1711L16.8746 16.4092L28.4531 4.82849H30.0439L34.5439 9.32849L32.9531 10.9215L29.2496 7.21574Z" fill="#FB4A04"/>
</svg>

<?xml version="1.0" encoding="utf-8"?>
<!-- Generator: Adobe Illustrator 28.2.0, SVG Export Plug-In . SVG Version: 6.00 Build 0)  -->
<svg width="36" height="36" version="1.1" id="Layer_1" xmlns="http://www.w3.org/2000/svg" xmlns:xlink="http://www.w3.org/1999/xlink" x="0px" y="0px"
	 viewBox="0 0 36 36" style="enable-background:new 0 0 36 36;" xml:space="preserve">
<style type="text/css">
	.st0{fill:#024DDF;}
</style>
<path class="st0" d="M33.8,29.2v2.2H3.4l-1.1-1.1V0h2.2v29.2H33.8z"/>
<path class="st0" d="M29.2,7.2L17.7,18.8h-1.6l-3.7-3.7l-8.2,8.2l-1.6-1.6l9-9h1.6l3.7,3.7L28.5,4.8H30l4.5,4.5L33,10.9L29.2,7.2z"
	/>
</svg>
